packages/core/src/svgs/cct.svg

<svg width="24" height="24" viewBox="0 0 24 24" fill="none" xmlns="http://www.w3.org/2000/svg">
<g clip-path="url(#clip0_31_8071)">
<path d="M0 0H24V24H0V0Z" fill="#02EB82"/>
<path d="M15.1071 7.52148C15.9487 8.40839 16.5222 9.5153 16.7614 10.7143H13.6928C13.4723 10.1532 13.1056 9.66136 12.6309 9.28981C12.1561 8.91827 11.5905 8.6806 10.9928 8.60148V7.52148H15.1071Z" fill="#4E4F4F"/>
<path d="M13.1058 6.11986L9.41148 8.00557V8.78986C8.77411 9.04719 8.22975 9.49174 7.85024 10.0648C7.47074 10.6379 7.27392 11.3126 7.28577 11.9999H4.28577C4.28577 8.45129 7.09719 5.57129 10.5643 5.57129C11.4686 5.57129 12.3301 5.76843 13.1058 6.11986Z" fill="#4F4F4F"/>
<path d="M19.7143 13.2856C19.1229 16.2127 16.5858 18.4284 13.5429 18.4284C10.0629 18.4284 7.28577 15.5484 7.28577 11.9999C7.28577 8.45129 10.0629 5.57129 13.5429 5.57129C15.0071 5.58443 16.4217 6.10377 17.5466 7.04117C18.6715 7.97858 19.4374 9.27631 19.7143 10.7141H16.7143C16.4553 10.0845 16.0162 9.54521 15.4521 9.16402C14.8879 8.78282 14.2238 8.57663 13.5429 8.57129C11.6872 8.57129 10.2858 10.1099 10.2858 11.9999C10.2858 13.8899 11.6872 15.4241 13.5429 15.4241C14.2231 15.4186 14.8867 15.2128 15.4507 14.8325C16.0147 14.4522 16.4542 13.9141 16.7143 13.2856H19.7143Z" fill="#F0F3FA"/>
<path d="M7.28577 12C7.28577 13.89 8.7172 15.4243 10.5643 15.4243C11.2417 15.4179 11.9021 15.2115 12.4625 14.831C13.0229 14.4505 13.4584 13.9129 13.7143 13.2857H16.7143C16.1272 16.2129 13.5943 18.4286 10.5643 18.4286C7.09291 18.4286 4.28577 15.5486 4.28577 12H7.28577Z" fill="#4E504C"/>
</g>
<defs>
<clipPath id="clip0_31_8071">
<rect width="24" height="24" fill="white"/>
</clipPath>
</defs>
</svg>

<svg xmlns="http://www.w3.org/2000/svg" width="24" height="24" fill="none" viewBox="0 0 24 24"><g clip-path="url(#a)"><path fill="#02EB82" d="M0 0h24v24H0z"/><path fill="#4E4F4F" d="M15.107 7.521a6.5 6.5 0 0 1 1.654 3.193h-3.068a3.38 3.38 0 0 0-2.7-2.113v-1.08z"/><path fill="#4F4F4F" d="M13.106 6.12 9.41 8.006v.784A3.4 3.4 0 0 0 7.286 12h-3c0-3.549 2.811-6.429 6.278-6.429.905 0 1.766.197 2.542.549"/><path fill="#F0F3FA" d="M19.714 13.286c-.591 2.927-3.128 5.142-6.171 5.142-3.48 0-6.257-2.88-6.257-6.428s2.777-6.429 6.257-6.429a6.34 6.34 0 0 1 6.171 5.143h-3a3.46 3.46 0 0 0-3.171-2.143c-1.856 0-3.257 1.539-3.257 3.429s1.401 3.424 3.257 3.424a3.46 3.46 0 0 0 3.171-2.138z"/><path fill="#4E504C" d="M7.286 12c0 1.89 1.431 3.424 3.278 3.424a3.44 3.44 0 0 0 3.15-2.138h3c-.587 2.927-3.12 5.143-6.15 5.143-3.471 0-6.278-2.88-6.278-6.429z"/></g><defs><clipPath id="a"><path fill="#fff" d="M0 0h24v24H0z"/></clipPath></defs></svg>
